packages/icons/svg/Fill/chevron-down.svg

<svg fill="none" height="24" viewBox="0 0 24 24" width="24" xmlns="http://www.w3.org/2000/svg"><path clip-rule="evenodd" d="m12 15.4998c-.256 0-.512-.098-.707-.293l-4.00002-4c-.391-.391-.391-1.023 0-1.41404.391-.391 1.023-.391 1.414 0l3.30502 3.30504 3.293-3.18004c.399-.383 1.03-.372 1.414.025.384.39704.373 1.03104-.024 1.41404l-4 3.862c-.195.188-.445.281-.695.281" fill="#6b7280" fill-rule="evenodd"/></svg>

<svg width="24" height="24" viewBox="0 0 24 24" fill="none" xmlns="http://www.w3.org/2000/svg">
<g id="Icon/Fill/chevron-down">
<path id="Mask" fill-rule="evenodd" clip-rule="evenodd" d="M12 15.5C11.744 15.5 11.488 15.402 11.293 15.207L7.29301 11.207C6.90201 10.816 6.90201 10.184 7.29301 9.79301C7.68401 9.40201 8.31601 9.40201 8.70701 9.79301L12.012 13.098L15.305 9.91801C15.704 9.53501 16.335 9.54601 16.719 9.94301C17.103 10.34 17.092 10.974 16.695 11.357L12.695 15.219C12.5 15.407 12.25 15.5 12 15.5Z" fill="#000000"/>
</g>
</svg>
